;FLAVOR:Marlin
;TIME:3969
;Filament used: 2.30331m
;Layer height: 0.16
;MINX:91.139
;MINY:98.75
;MINZ:0.3
;MAXX:167.55
;MAXY:148.35
;MAXZ:15.32
;Generated with Cura_SteamEngine main
M140 S60
M105
M190 S60
M104 S200
M105
M109 S200
M82 ;absolute extrusion mode
G21 ;metric values
G90 ;absolute positioning
M82 ;set extruder to absolute mode
M107 ;start with the fan off
G28 X0 Y0 ;move X/Y to min endstops
G28 Z0 ;move Z to min endstops
G1 Z15.0 F100 ;move the platform down 15mm
G92 E0 ;zero the extruded length
G1 F200 E3 ;extrude 3mm of feed stock
G92 E0 ;zero the extruded length again
G1 F100
G0 Y20 F100
M117 Printing...
G5
G92 E0
G92 E0
G1 F2400 E-6.5
;LAYER_COUNT:93
;LAYER:0
M107
G1 F600 Z0.6
;MESH:Nadelbox.stl
G0 F2500 X97.299 Y120.767 Z0.6
;TYPE:WALL-OUTER
G1 F600 Z0.3
G1 F2400 E0
G1 F2022.5 X97.256 Y120.767 E0.00191
G1 X97.255 Y120.843 E0.00528
G1 X97.321 Y120.805 E0.00867
G1 F2400 E-6.49133
G1 F600 Z0.6
G0 F2500 X99.026 Y120.484 Z0.6
G1 F600 Z0.3
G1 F2400 E0.00867
G1 F1390 X98.963 Y120.484 E0.01274
G1 X98.931 Y120.539 E0.01685
G1 X98.962 Y120.594 E0.02093
G1 X99.026 Y120.594 E0.02506
G1 X99.058 Y120.539 E0.02917
G1 F2400 E-6.47083
G1 F600 Z0.6
G0 F2500 X100.664 Y120.187 Z0.6
G1 F600 Z0.3
G1 F2400 E0.02917
G1 F2117.6 X100.814 Y120.186 E0.03553
G1 F2400 E-6.46447
G1 F600 Z0.6
G0 F2500 X103.308 Y120.451 Z0.6
G1 F600 Z0.3
G1 F2400 E0.03553
G1 F1384.6 X103.244 Y120.451 E0.03968
G1 X103.212 Y120.507 E0.04387
G1 X103.244 Y120.563 E0.04805
G1 X103.308 Y120.563 E0.0522
G1 X103.341 Y120.507 E0.05642
G1 F2400 E-6.44358
G1 F600 Z0.6
G0 F2500 X104.948 Y120.451 Z0.6
G1 F600 Z0.3
G1 F2400 E0.05642
G1 F1260.9 X104.956 Y120.629 E0.06911
G1 F2400 E-6.43089
G1 F600 Z0.6
G0 F2500 X102.669 Y123.479 Z0.6
G1 F600 Z0.3
G1 F2400 E0.06911
G1 F2117.6 X102.519 Y123.48 E0.07547
G1 F2400 E-6.42453
G1 F600 Z0.6
G0 F2500 X102.664 Y126.583 Z0.6
G1 F600 Z0.3
G1 F2400 E0.07547
G1 F1493.8 X102.664 Y127.149 E0.10949
G1 F2400 E-6.39051
G1 F600 Z0.6
G0 F2500 X98.394 Y126.376 Z0.6
G1 F600 Z0.3
G1 F2400 E0.10949
G1 F1818.2 X98.321 Y126.418 E0.11365
G1 X98.321 Y126.334 E0.1178
G1 X98.369 Y126.334 E0.12017
G0 F2500 X98.338 Y127.265
G1 F1500 X98.279 Y127.265 E0.12371
G1 X98.249 Y127.316 E0.12725
G1 X98.278 Y127.367 E0.13076
G1 X98.338 Y127.367 E0.13435
G1 X98.368 Y127.316 E0.1379
G1 F2400 E-6.3621
G1 F600 Z0.6
G0 F2500 X96.749 Y123.922 Z0.6
G1 F600 Z0.3
G1 F2400 E0.1379
G1 F1260.9 X96.741 Y123.745 E0.15051
G0 F2500 X97.624 Y123.459
G1 F2117.6 X97.624 Y124.178 E0.181
G0 F2500 X98.478 Y124.591
G1 F1545.1 X98.474 Y123.661 E0.23506
G1 F2400 E-6.26494
G1 F600 Z0.6
G0 F2500 X99.177 Y122 Z0.6
;TYPE:WALL-INNER
G1 F600 Z0.3
G1 F2400 E0.23506
G1 F1068.2 X99.152 Y122.182 E0.2505
G1 X99.11 Y122.358 E0.26571
G1 F1466.4 X99.538 Y122.619 E0.29641
G1 X99.643 Y122.753 E0.30684
G1 X99.645 Y122.506 E0.32196
G1 F1425.7 X99.752 Y122.107 E0.34798
G1 F1406.2 X99.803 Y122.055 E0.35264
G1 F1445.8 X99.177 Y122 E0.39167
G0 F2500 X99.877 Y120.89
;TYPE:WALL-OUTER
G1 F2117.6 X99.848 Y120.532 E0.4069
G1 X99.875 Y120.175 E0.42208
G0 F2500 X100.901 Y120.794
G1 F2051.3 X101.432 Y120.709 E0.44562
G1 F2117.6 X101.571 Y120.725 E0.45156
G1 X101.596 Y120.635 E0.45552
G1 X101.574 Y120.124 E0.47721
G0 F2500 X101.571 Y120.725
G1 F2117.6 X101.583 Y121.217 E0.49808
G0 F2500 X102.367 Y121.293
G1 F2000 X102.367 Y119.189 E0.59255
G1 F2400 E-5.90745
G1 F600 Z0.6
G0 F2500 X104.117 Y120.49 Z0.6
G1 F600 Z0.3
G1 F2400 E0.59255
G1 F2117.6 X104.076 Y120.49 E0.59429
G1 X104.075 Y120.562 E0.59734
G1 X104.138 Y120.526 E0.60042
G1 F2400 E-5.89958
G1 F600 Z0.6
G0 F2500 X105.655 Y121.206 Z0.6
G1 F600 Z0.3
G1 F2400 E0.60042
G1 F2057.1 X105.859 Y120.887 E0.61695
G1 F1575.5 X106.008 Y120.52 E0.63953
G1 F1600 X105.839 Y120.11 E0.66442
G1 F2099.1 X105.667 Y119.855 E0.67758
G1 F2400 E-5.82242
G1 F600 Z0.6
G0 F2500 X104.216 Y122.482 Z0.6
G1 F600 Z0.3
G1 F2400 E0.67758
G1 F2033.9 X104.233 Y122.954 E0.69843
G1 F2051.3 X104.888 Y122.954 E0.7271
G1 F2117.6 X104.974 Y123.122 E0.73511
G1 F1451.6 X105.198 Y123.813 E0.78005
G0 F2500 X104.222 Y124.586
G1 F2000 X104.222 Y123.062 E0.84848
G1 F1930.3 X104.235 Y122.964 E0.85307
G0 F2500 X103.429 Y123.416
G1 F2117.6 X103.451 Y123.928 E0.87481
G1 X103.426 Y124.018 E0.87877
G0 F2500 X103.438 Y124.51
G1 F2117.6 X103.426 Y124.018 E0.89964
G1 X103.287 Y124.002 E0.90557
G1 F2051.3 X102.757 Y124.087 E0.92907
G0 F2500 X101.74 Y123.742
G1 F1782.2 X101.808 Y123.165 E0.95835
G1 F1585.9 X101.862 Y123.107 E0.96283
G1 X101.808 Y123.165 E0.96732
G1 F1702.1 X101.64 Y123.141 E0.97628
G1 F1904.8 X101.056 Y123.141 E1.00381
G1 F2400 E-5.49619
G1 F600 Z0.6
G0 F2500 X98.143 Y120.871 Z0.6
G1 F600 Z0.3
G1 F2400 E1.00381
G1 F2117.6 X98.145 Y120.254 E1.02997
G0 F2500 X97.176 Y120.197
G1 F1773.4 X96.563 Y120.346 E1.06192
G1 X96.494 Y120.536 E1.07215
G1 F2117.6 X96.461 Y120.867 E1.08626
G0 F2500 X96.563 Y120.346
G1 F1659 X96.522 Y120.2 E1.09447
G1 F1827.4 X96.522 Y119.803 E1.11398
G1 F2400 E-5.38602
G1 F600 Z0.6
G0 F2500 X96.745 Y122.146 Z0.6
;TYPE:WALL-INNER
G1 F600 Z0.3
G1 F2400 E1.11398
G1 F994.5 X96.59 Y122.047 E1.13059
G1 F1330.9 X96.344 Y121.964 E1.14811
G1 F1743.3 X95.844 Y121.964 E1.17386
G1 F1666.7 X95.551 Y121.922 E1.18981
G1 F1589.4 X95.458 Y121.867 E1.19592
G1 X95.365 Y121.922 E1.20202
G1 F1618 X95.099 Y121.977 E1.2171
G1 F1643.8 X94.378 Y121.937 E1.25654
G1 F1568.6 X94.024 Y121.693 E1.28116
G1 F1500 X93.893 Y121.364 E1.30236
G1 X93.893 Y119.278 E1.42724
G1 X93.948 Y119.001 E1.44415
G1 X94.091 Y118.781 E1.45986
G1 X94.274 Y118.642 E1.47362
G1 X94.501 Y118.558 E1.48811
G1 X95.302 Y118.561 E1.53606
G1 X95.466 Y118.598 E1.54613
G1 X95.548 Y118.667 E1.55254
G1 X95.63 Y118.598 E1.55896
G1 X95.817 Y118.559 E1.5704
G1 X96.418 Y118.558 E1.60638
G1 X96.596 Y118.609 E1.61746
G1 X96.778 Y118.717 E1.63013
G1 X96.989 Y119.007 E1.6516
G1 X97.692 Y119.042 E1.69374
G1 X98.176 Y119.23 E1.72483
G1 X98.348 Y119.124 E1.73692
G1 X98.549 Y119.065 E1.74947
G1 X98.628 Y118.831 E1.76425
G1 X98.875 Y118.575 E1.78555
G1 X99.112 Y118.474 E1.80097
G1 X99.859 Y118.468 E1.8457
G1 X100.137 Y118.599 E1.86409
G1 X100.361 Y118.853 E1.88437
G1 X100.415 Y119.049 E1.89654
G1 X100.743 Y119.002 E1.91638
G1 X101.027 Y119.03 E1.93346
G1 X101.117 Y118.79 E1.94881
G1 X101.303 Y118.599 E1.96477
G1 X101.643 Y118.472 E1.9865
G1 X102.248 Y118.471 E2.02272
G1 X102.51 Y118.469 E2.0384
G1 X103.126 Y118.468 E2.07528
G1 X103.38 Y118.566 E2.09158
G1 X103.562 Y118.717 E2.10574
G1 X103.689 Y118.927 E2.12043
G1 X103.714 Y119.043 E2.12754
G1 X104.012 Y119.126 E2.14606
G1 X104.159 Y119.219 E2.15647
G1 X104.451 Y119.076 E2.17594
G1 X104.914 Y119.003 E2.204
G1 X105.468 Y119.08 E2.23748
G1 X105.533 Y119.11 E2.24177
G1 X105.766 Y119.049 E2.25619
G1 X106.358 Y119.048 E2.29163
G1 X106.58 Y119.083 E2.30509
G1 X106.64 Y119.129 E2.30961
G1 X106.874 Y119.05 E2.3244
G1 X107.601 Y119.048 E2.36792
G1 X107.882 Y119.183 E2.38659
G1 X108.085 Y119.404 E2.40455
G1 X108.172 Y119.644 E2.41984
G1 X108.172 Y119.894 E2.4348
G1 X108.12 Y120.065 E2.4455
G1 X107.808 Y120.517 E2.47838
G1 X108.124 Y120.976 E2.51175
G1 X108.18 Y121.153 E2.52286
G1 X108.18 Y121.403 E2.53783
G1 X108.139 Y121.546 E2.54673
G1 X107.992 Y121.774 E2.56297
G1 X107.69 Y121.964 E2.58434
G1 X107.469 Y121.998 E2.59772
G1 F1538.5 X106.742 Y121.96 E2.64022
G1 F1614.3 X106.627 Y121.91 E2.64719
G1 F1686.2 X106.456 Y121.958 E2.65665
G1 F1722.5 X105.794 Y121.978 E2.69118
G1 F1726.6 X105.534 Y121.911 E2.70514
G1 X105.325 Y121.965 E2.71637
G1 X105.45 Y122.084 E2.72535
G1 X105.563 Y122.374 E2.74154
G1 F1694.1 X105.89 Y122.426 E2.75909
G1 F1690.1 X106.053 Y122.382 E2.76806
G1 F1714.3 X106.805 Y122.358 E2.80747
G1 F1600 X107.231 Y122.561 E2.83396
G1 F1500 X107.359 Y122.743 E2.84728
G1 X107.431 Y122.999 E2.8632
G1 X107.373 Y123.323 E2.8829
G1 X107.712 Y123.366 E2.90336
G1 X107.989 Y123.548 E2.92321
G1 X108.135 Y123.776 E2.93941
G1 X108.176 Y123.918 E2.94826
G1 X108.176 Y124.222 E2.96646
G1 X107.614 Y125.445 E3.04704
G1 X107.367 Y125.673 E3.06717
G1 X107.528 Y125.956 E3.08666
G1 X107.608 Y126.431 E3.1155
G1 X107.491 Y126.985 E3.1494
G1 X107.653 Y127.242 E3.16758
G1 X107.695 Y127.486 E3.18241
G1 X107.685 Y127.989 E3.21253
G1 X107.641 Y128.141 E3.222
G1 X107.498 Y128.361 E3.23771
G1 X107.315 Y128.5 E3.25147
G1 X107.088 Y128.584 E3.26596
G1 X105.468 Y128.584 E3.36294
G1 X105.364 Y128.571 E3.36922
G1 X105.26 Y128.584 E3.37549
G1 X103.691 Y128.582 E3.46943
G1 X103.489 Y128.535 E3.48184
G1 X103.372 Y128.461 E3.49013
G1 X103.25 Y128.527 E3.49843
G1 X102.664 Y128.639 E3.53415
G1 X102.045 Y128.497 E3.57217
G1 X101.771 Y128.583 E3.58937
G1 X100.186 Y128.582 E3.68426
G1 X100.052 Y128.542 E3.69263
G1 X99.892 Y128.584 E3.70253
G1 X99.248 Y128.582 E3.74109
G1 X99.024 Y128.482 E3.75577
G1 X98.785 Y128.579 E3.77122
G1 X98.135 Y128.621 E3.81021
G1 X97.768 Y128.562 E3.83247
G1 X97.59 Y128.49 E3.84396
G1 X97.372 Y128.584 E3.85817
G1 X96.692 Y128.581 E3.89889
G1 X96.437 Y128.504 E3.91483
G1 X96.296 Y128.407 E3.92508
G1 X96.147 Y128.49 E3.93529
G1 X95.691 Y128.608 E3.96349
G1 X94.947 Y128.587 E4.00805
G1 X94.723 Y128.497 E4.0225
G1 X94.547 Y128.357 E4.03596
G1 X94.411 Y128.14 E4.0513
G1 X94.369 Y127.995 E4.06033
G1 X94.361 Y127.414 E4.09512
G1 X94.388 Y127.287 E4.10289
G1 X94.292 Y127.103 E4.11532
G1 X94.206 Y126.675 E4.14145
G1 X94.208 Y126.416 E4.15696
G1 X94.292 Y126.016 E4.18143
G1 X94.595 Y125.536 E4.21541
G1 X94.942 Y125.291 E4.24084
G1 X94.706 Y125.279 E4.25499
G1 X94.536 Y125.224 E4.26569
G1 X94.303 Y125.05 E4.2831
G1 X94.19 Y124.888 E4.29492
G1 X93.598 Y123.226 E4.40055
G1 X93.596 Y122.936 E4.41791
G1 X93.741 Y122.614 E4.43905
G1 X93.889 Y122.473 E4.45129
G1 F1568.6 X94.305 Y122.362 E4.47594
G1 F1643.8 X95.034 Y122.402 E4.51582
G1 X95.107 Y122.438 E4.52027
G1 F1618 X95.458 Y122.355 E4.54029
G1 F1629 X96.102 Y122.396 E4.57586
G1 F1670.5 X96.165 Y122.418 E4.57945
G1 F1702.1 X96.379 Y122.376 E4.59096
G1 F1206 X96.745 Y122.146 E4.62314
G1 F2400 E-1.87686
G1 F600 Z0.6
G0 F2500 X95.312 Y120.813 Z0.6
;TYPE:WALL-OUTER
G1 F600 Z0.3
G1 F2400 E4.62314
G1 F1500 X95.283 Y121.395 E4.65803
G1 X95.214 Y121.473 E4.66427
G1 X95.097 Y121.517 E4.67175
G1 X94.532 Y121.505 E4.70558
G1 X94.416 Y121.417 E4.7143
G1 X94.376 Y121.32 E4.72058
G1 X94.373 Y119.213 E4.84672
G1 X94.439 Y119.112 E4.85395
G1 X94.56 Y119.043 E4.86229
G1 X95.293 Y119.039 E4.90617
G1 X95.438 Y119.16 E4.91748
G1 X95.628 Y119.5 E4.94079
G1 X95.658 Y119.16 E4.96123
G1 X95.804 Y119.038 E4.97262
G1 X96.379 Y119.043 E5.00704
G1 X96.531 Y119.152 E5.01824
G1 X96.566 Y119.278 E5.02607
G1 F1651.4 X96.522 Y119.803 E5.05472
G1 F1674.4 X96.675 Y119.572 E5.06958
G1 F1519 X97.075 Y119.492 E5.0937
G1 F1500 X97.632 Y119.522 E5.12709
G1 X97.938 Y119.643 E5.14679
G1 X98.147 Y119.869 E5.16522
G1 F1575.5 X98.169 Y119.981 E5.17173
G1 X98.287 Y119.752 E5.18641
G1 F1500 X98.556 Y119.558 E5.20627
G1 X98.825 Y119.494 E5.22282
G1 X99.013 Y119.504 E5.23409
G1 X99.021 Y119.126 E5.25673
G1 X99.073 Y119.029 E5.26332
G1 X99.224 Y118.95 E5.27352
G1 X99.776 Y118.954 E5.30657
G1 F1506.3 X99.963 Y119.098 E5.32064
G1 F1519 X99.959 Y119.863 E5.36587
G1 F1512.6 X100.055 Y119.739 E5.37518
G1 F1500 X100.392 Y119.538 E5.39867
G1 X100.767 Y119.482 E5.42137
G1 X101.115 Y119.529 E5.44239
G1 X101.431 Y119.708 E5.46413
G1 F1538.5 X101.493 Y119.798 E5.47051
G1 F1558.4 X101.475 Y119.121 E5.50954
G1 F1519 X101.579 Y118.992 E5.51933
G1 F1500 X101.698 Y118.949 E5.52691
G1 X102.243 Y118.95 E5.55954
G1 F1714.3 X102.367 Y119.189 E5.57364
G1 X102.492 Y118.949 E5.58782
G1 F1500 X103.067 Y118.953 E5.62224
G1 X103.199 Y119.031 E5.63142
G1 X103.257 Y119.176 E5.64077
G1 X103.257 Y119.531 E5.66202
G1 X103.515 Y119.492 E5.67765
G1 X103.792 Y119.554 E5.69464
G1 X104.042 Y119.752 E5.71373
G1 X104.126 Y119.889 E5.72335
G1 X104.222 Y119.752 E5.73337
G1 X104.523 Y119.558 E5.75481
G1 X104.973 Y119.483 E5.78212
G1 X105.344 Y119.544 E5.80463
G1 X105.607 Y119.7 E5.82294
G1 X105.669 Y119.571 E5.8315
G1 X105.758 Y119.528 E5.83742
G1 X106.419 Y119.53 E5.877
G1 X106.559 Y119.636 E5.88751
G1 X106.64 Y119.758 E5.89628
G1 X106.721 Y119.636 E5.90504
G1 X106.861 Y119.53 E5.91556
G1 X107.509 Y119.528 E5.95435
G1 X107.602 Y119.573 E5.96054
G1 X107.699 Y119.727 E5.97143
G1 X107.682 Y119.868 E5.97993
G1 X107.214 Y120.515 E6.02774
G1 X107.688 Y121.177 E6.07648
G1 X107.693 Y121.368 E6.08792
G1 X107.588 Y121.488 E6.09747
G1 X107.469 Y121.518 E6.10482
G1 X106.824 Y121.518 E6.14343
G1 X106.628 Y121.276 E6.16208
G1 X106.433 Y121.515 E6.18054
G1 X105.778 Y121.518 E6.21976
G1 X105.66 Y121.477 E6.22724
G1 F1714.3 X105.623 Y121.257 E6.23892
G1 X105.414 Y121.475 E6.25474
G1 F1361.1 X104.961 Y121.614 E6.28601
G1 F1214.2 X104.577 Y121.572 E6.31458
G1 F1326 X104.21 Y121.283 E6.34621
G1 F1500 X104.101 Y121.117 E6.3581
G1 X104.036 Y121.231 E6.36596
G1 F1437.1 X103.692 Y121.509 E6.3936
G1 F1285.7 X103.41 Y121.604 E6.41438
G1 F1321.1 X103.09 Y121.507 E6.43711
G1 F1463.4 X103.027 Y121.523 E6.4411
G1 F1478.4 X102.458 Y121.517 E6.47566
G1 F1710.2 X102.367 Y121.293 E6.48836
G1 F1726.6 X102.285 Y121.495 E6.4997
G1 F1281.1 X101.818 Y121.603 E6.5333
G1 F1089.3 X101.585 Y121.588 E6.55255
G1 F1204 X101.522 Y121.429 E6.5653
G1 X101.353 Y121.577 E6.58206
G1 F1107.7 X100.815 Y121.631 E6.62589
G1 F1069.8 X100.301 Y121.582 E6.66923
G1 F997.2 X100.04 Y121.44 E6.69599
G1 F993.1 X99.856 Y121.615 E6.71895
G1 F1166.9 X99.723 Y121.533 E6.73098
G1 F1454.5 X99.203 Y121.514 E6.7631
G1 F1500 X99.132 Y121.488 E6.76763
G1 X98.811 Y121.56 E6.78732
G1 X98.473 Y121.486 E6.80804
G1 X98.241 Y121.291 E6.82618
G1 X98.172 Y121.451 E6.83661
G1 X98.053 Y121.518 E6.84479
G1 X97.491 Y121.514 E6.87844
G1 X97.417 Y121.483 E6.88324
G1 X97.061 Y121.558 E6.90502
G1 F1503.1 X96.775 Y121.503 E6.92242
G1 X96.551 Y121.343 E6.93887
G1 X96.455 Y121.48 E6.94886
G1 X96.362 Y121.516 E6.95482
G1 F1500 X95.844 Y121.518 E6.98583
G1 X95.671 Y121.463 E6.9967
G1 X95.312 Y120.813 E7.04115
G0 F2500 X95.303 Y121.013
G1 F2400 E0.54115
G1 F600 Z0.6
G0 F2500 X96.257 Y125.236 Z0.6
;TYPE:WALL-INNER
G1 F600 Z0.3
G1 F2400 E7.04115
G1 F1690.1 X96.596 Y125.44 E7.06218
G1 F1662.8 X96.753 Y125.58 E7.07354
G1 X96.97 Y125.927 E7.09564
G1 X97.042 Y125.766 E7.10516
G1 F1368.8 X97.358 Y125.301 E7.14205
G1 X96.646 Y125.307 E7.18876
G1 F1690.1 X96.257 Y125.236 E7.20977
G0 F2500 X95.601 Y124.736
;TYPE:WALL-OUTER
G1 F1152 X95.505 Y124.867 E7.22243
G1 F1090.9 X95.243 Y124.901 E7.24418
G1 F1265.4 X94.74 Y124.789 E7.28075
G1 F1500 X94.63 Y124.686 E7.28977
G1 X94.068 Y123.104 E7.39028
G1 X94.068 Y123.02 E7.39531
G1 X94.166 Y122.865 E7.40629
G1 X94.305 Y122.821 E7.41502
G1 X94.8 Y122.822 E7.44466
G1 X94.93 Y122.859 E7.45275
G1 X95.031 Y122.991 E7.4627
G1 X95.107 Y123.239 E7.47823
G1 X95.183 Y122.991 E7.49376
G1 X95.347 Y122.83 E7.50752
G1 X95.947 Y122.821 E7.54344
G1 X96.034 Y122.862 E7.5492
G1 X96.095 Y122.99 E7.55769
G1 X96.352 Y122.834 E7.57569
G1 X96.737 Y122.776 E7.599
G1 X97.163 Y122.846 E7.62484
G1 X97.504 Y123.072 E7.64933
G1 F1519 X97.541 Y123.142 E7.65401
G1 X97.544 Y122.991 E7.66294
G1 F1500 X97.639 Y122.863 E7.67249
G1 X97.732 Y122.825 E7.6785
G1 X98.282 Y122.824 E7.71143
G1 X98.372 Y122.862 E7.71728
G1 X98.681 Y122.783 E7.73637
G1 X98.978 Y122.827 E7.75435
G1 X99.221 Y122.986 E7.77173
G1 F1345.8 X99.481 Y123.404 E7.80458
G1 F1216.2 X99.482 Y124.597 E7.89267
G1 F1343.3 X99.28 Y124.792 E7.91144
G1 F1278.9 X98.75 Y124.894 E7.94934
G1 F1107.7 X98.596 Y124.876 E7.96191
G1 F1150.2 X98.53 Y124.809 E7.96925
G1 F1345.8 X98.478 Y124.591 E7.9842
G1 X98.427 Y124.809 E7.99914
G1 F1150.2 X98.362 Y124.876 E8.00643
G1 F1107.7 X97.914 Y124.895 E8.04279
G1 F1166.9 X97.774 Y124.865 E8.0538
G1 F1350.8 X97.639 Y124.77 E8.06478
